img/carbon_message-queue.svg

<svg width="64" height="64" viewBox="0 0 64 64" fill="none" xmlns="http://www.w3.org/2000/svg">
<path d="M56 56H8C6.93913 56 5.92172 55.5786 5.17157 54.8284C4.42143 54.0783 4 53.0609 4 52V42H8V52H56V42H60V52C60 53.0609 59.5786 54.0783 58.8284 54.8284C58.0783 55.5786 57.0609 56 56 56Z" fill="#424674"/>
<path d="M14 42H50V46H14V42ZM14 32H50V36H14V32ZM14 22H50V26H14V22ZM14 12H50V16H14V12Z" fill="#F2F2F6"/>
</svg>

<svg xmlns="http://www.w3.org/2000/svg" width="64" height="64" fill="none"><path fill="#424674" d="M56 56H8a4 4 0 0 1-4-4V42h4v10h48V42h4v10a4 4 0 0 1-4 4"/><path fill="#F2F2F6" d="M14 42h36v4H14zm0-10h36v4H14zm0-10h36v4H14zm0-10h36v4H14z"/></svg>
